localPackages/DesignSystem/Sources/DesignSystem/Resources/Assets.xcassets/IconSet/ic-shield-filled.imageset/ic-shield-filled.svg

<svg width="24" height="24" viewBox="0 0 24 24" fill="none" xmlns="http://www.w3.org/2000/svg">
<g id="ic-shield-filled">
<path id="Icon" fill-rule="evenodd" clip-rule="evenodd" d="M12.0005 3.04333L4.60542 5.58506C4.36402 8.26031 4.48981 11.0743 5.4855 13.6894C6.49123 16.3309 8.42266 18.8728 12.0005 20.8913C15.5778 18.8728 17.5089 16.3309 18.5145 13.6895C19.5101 11.0743 19.6358 8.26031 19.3946 5.585L12.0005 3.04333ZM11.7581 1.5405L3.65982 4.32393C3.38761 4.41749 3.19182 4.65891 3.1611 4.94678C2.53408 10.8227 3.4165 17.9853 11.6565 22.4142C11.8693 22.5286 12.1317 22.5286 12.3445 22.4142C20.5835 17.9853 21.4656 10.8227 20.839 4.94681C20.8083 4.65892 20.6125 4.41748 20.3403 4.32391L12.2429 1.54051C12.0857 1.4865 11.9153 1.4865 11.7581 1.5405ZM6.33252 6.30472L11.8388 4.31653C11.9435 4.27795 12.0572 4.27795 12.1619 4.31653L17.6676 6.30468C17.8491 6.37151 17.9796 6.54397 18.0001 6.7496C18.4178 10.9467 17.7224 16.0628 12.2297 19.2263C12.0879 19.308 11.9129 19.308 11.771 19.2263C6.27769 16.0628 5.58203 10.9467 6.00004 6.74962C6.02052 6.54399 6.15105 6.37155 6.33252 6.30472Z" fill="#0F0F0F"/>
</g>
</svg>

<svg xmlns="http://www.w3.org/2000/svg" width="24" height="24" viewBox="0 0 24 24">
  <g class="ic-shield-filled">
    <path fill-rule="evenodd" d="M12 3.043 4.606 5.585c-.241 2.675-.115 5.49.88 8.104 1.006 2.642 2.938 5.184 6.516 7.202 3.577-2.018 5.508-4.56 6.514-7.201.995-2.616 1.12-5.43.88-8.105L12 3.043Zm-.242-1.503L3.66 4.324a.743.743 0 0 0-.499.623c-.627 5.876.256 13.038 8.495 17.467a.733.733 0 0 0 .688 0c8.24-4.429 9.122-11.591 8.495-17.467a.743.743 0 0 0-.499-.623L12.243 1.54a.746.746 0 0 0-.485 0ZM6.333 6.305l5.506-1.988a.465.465 0 0 1 .323 0l5.506 1.988A.524.524 0 0 1 18 6.75c.418 4.197-.278 9.313-5.77 12.476a.46.46 0 0 1-.459 0C6.278 16.063 5.582 10.946 6 6.75a.525.525 0 0 1 .333-.445Z" class="Icon"/>
  </g>
</svg>
